brandFactory_export/2.Regular/Grupo_2Regular.svg

<?xml version="1.0" encoding="UTF-8"?>
<svg width="24px" height="24px" viewBox="0 0 24 24" version="1.1" xmlns="http://www.w3.org/2000/svg" xmlns:xlink="http://www.w3.org/1999/xlink">
    <title>2.Regular/Grupo_2Regular</title>
    <g id="Symbols" stroke="none" stroke-width="1" fill="none" fill-rule="evenodd">
        <g id="2.Regular/Grupo_2Regular" fill="#5CB615" fill-rule="nonzero">
            <path d="M10.907563,1.73781513 C10.702521,1.93613445 10.6588235,2.34957983 10.6588235,2.65882353 C10.6588235,2.91092437 10.6890756,3.36470588 10.907563,3.57310924 C11.1193277,3.77815126 11.5630252,3.80840336 11.8084034,3.80840336 C12.0537815,3.80840336 12.5008403,3.77815126 12.7159664,3.5697479 C12.9210084,3.37142857 12.9647059,2.96470588 12.9647059,2.65882353 C12.9647059,2.34957983 12.9210084,1.9394958 12.712605,1.73781513 C12.507563,1.5394958 12.107563,1.49915966 11.805042,1.49915966 C11.5630252,1.50252101 11.1226891,1.53277311 10.907563,1.73781513 Z M11.8084034,5.31092437 C10.9714286,5.31092437 10.3193277,5.09243697 9.86890756,4.65546218 C9.39831933,4.20168067 9.16302521,3.53277311 9.16302521,2.65882353 C9.16302521,1.78823529 9.39831933,1.11260504 9.86890756,0.662184874 C10.3159664,0.221848739 10.9714286,0 11.8084034,0 C12.6453782,0 13.3008403,0.221848739 13.7546218,0.658823529 C14.2252101,1.11260504 14.4638655,1.78823529 14.4638655,2.65882353 C14.4638655,3.52941176 14.2252101,4.20168067 13.7546218,4.65546218 C13.3008403,5.09243697 12.6453782,5.31092437 11.8084034,5.31092437 Z M8.94453782,8.37647059 C8.74957983,8.58151261 8.65882353,8.85378151 8.62521008,9.10588235 L15.0016807,9.10588235 C14.9647059,8.85378151 14.8773109,8.58487395 14.6789916,8.37983193 C14.3596639,8.04369748 13.8218487,7.97647059 13.4252101,7.97647059 L10.194958,7.97647059 C9.79831933,7.97647059 9.26386555,8.04369748 8.94453782,8.37647059 L8.94453782,8.37647059 Z M7.40168067,10.6084034 C7.23697479,10.6084034 7.10252101,10.4739496 7.10252101,10.3058824 L7.10252101,9.42184874 C7.10252101,8.57815126 7.36470588,7.85546218 7.86218487,7.33781513 C8.40336134,6.7697479 9.21008403,6.47394958 10.1915966,6.47394958 L13.4218487,6.47394958 C14.4067227,6.47394958 15.210084,6.77310924 15.7546218,7.33781513 C16.2554622,7.85546218 16.5210084,8.57815126 16.5210084,9.42184874 L16.5210084,10.3058824 C16.5210084,10.4705882 16.3865546,10.6084034 16.2218487,10.6084034 L16.2184874,10.6084034 L7.40168067,10.6084034 L7.40168067,10.6084034 Z M3.80504202,14.7563025 C3.6,14.9546218 3.55630252,15.3680672 3.55630252,15.6773109 C3.55630252,15.9865546 3.6,16.3932773 3.80504202,16.5915966 C4.01680672,16.7966387 4.4605042,16.8268908 4.70588235,16.8268908 C4.9512605,16.8268908 5.39831933,16.7966387 5.61344538,16.5882353 C5.81848739,16.389916 5.86218487,15.9831933 5.86218487,15.6773109 C5.86218487,15.3680672 5.81848739,14.9579832 5.61008403,14.7563025 C5.40504202,14.5579832 5.00504202,14.5176471 4.70588235,14.5176471 C4.4605042,14.5176471 4.02016807,14.5478992 3.80504202,14.7563025 L3.80504202,14.7563025 Z M4.70588235,18.3260504 C3.86890756,18.3260504 3.21680672,18.1042017 2.76638655,17.6705882 C2.29579832,17.2201681 2.0605042,16.5478992 2.0605042,15.6739496 C2.0605042,14.8033613 2.29579832,14.1277311 2.76638655,13.6739496 C3.22016807,13.2369748 3.87226891,13.0151261 4.7092437,13.0151261 C5.54621849,13.0151261 6.20168067,13.2369748 6.65546218,13.6739496 C7.12605042,14.1310924 7.36470588,14.8033613 7.36470588,15.6739496 C7.36470588,16.5445378 7.12605042,17.2168067 6.65210084,17.6705882 C6.19831933,18.107563 5.54285714,18.3260504 4.70588235,18.3260504 Z M1.51932773,22.1210084 L7.89579832,22.1210084 C7.85882353,21.8689076 7.77142857,21.6 7.57310924,21.3915966 C7.25042017,21.0554622 6.71260504,20.9882353 6.31932773,20.9882353 L3.08907563,20.9882353 C2.69579832,20.9882353 2.16134454,21.0588235 1.84201681,21.3915966 C1.64369748,21.5966387 1.55630252,21.8689076 1.51932773,22.1210084 Z M6.32268908,19.4890756 C7.30420168,19.4890756 8.11092437,19.7882353 8.65546218,20.3529412 C9.15630252,20.8739496 9.41848739,21.5966387 9.41848739,22.4403361 L9.41848739,23.3210084 C9.41848739,23.4890756 9.28403361,23.6235294 9.11932773,23.6235294 L0.302521008,23.6235294 C0.137815126,23.6235294 0,23.4890756 0,23.3210084 L0,22.4369748 C0,21.5932773 0.262184874,20.8705882 0.756302521,20.3529412 C1.29747899,19.7882353 2.10420168,19.4857143 3.08571429,19.4857143 L6.32268908,19.4890756 L6.32268908,19.4890756 Z M18.0134454,14.7462185 C17.8084034,14.9478992 17.7647059,15.3579832 17.7647059,15.6672269 C17.7647059,15.9193277 17.794958,16.3731092 18.0134454,16.5815126 C18.2252101,16.7865546 18.6689076,16.8168067 18.9142857,16.8168067 C19.1596639,16.8168067 19.6067227,16.7865546 19.8218487,16.5781513 C20.0268908,16.3798319 20.0705882,15.9731092 20.0705882,15.6672269 C20.0705882,15.3579832 20.0268908,14.9478992 19.8184874,14.7462185 C19.6134454,14.5478992 19.2134454,14.507563 18.9142857,14.507563 C18.6655462,14.5109244 18.2252101,14.5411765 18.0134454,14.7462185 L18.0134454,14.7462185 Z M16.9680672,17.6638655 C16.497479,17.210084 16.2621849,16.5411765 16.2621849,15.6672269 C16.2621849,14.7932773 16.497479,14.1210084 16.9680672,13.6705882 C17.4184874,13.2302521 18.0739496,13.0084034 18.9109244,13.0084034 C19.7478992,13.0084034 20.4033613,13.2302521 20.8571429,13.6672269 C21.3277311,14.1210084 21.5663866,14.7966387 21.5663866,15.6672269 C21.5663866,16.5378151 21.3277311,17.210084 20.8537815,17.6638655 C20.4033613,18.1008403 19.7478992,18.3193277 18.9109244,18.3193277 C18.0739496,18.3193277 17.4218487,18.097479 16.9680672,17.6638655 L16.9680672,17.6638655 Z M15.7277311,22.1142857 L22.1042017,22.1142857 C22.0672269,21.8621849 21.9798319,21.5932773 21.7815126,21.3848739 C21.4588235,21.0487395 20.9210084,20.9815126 20.5277311,20.9815126 L17.2941176,20.9815126 C16.9008403,20.9815126 16.3663866,21.0521008 16.0470588,21.3848739 C15.8487395,21.589916 15.7613445,21.8621849 15.7277311,22.1142857 Z M22.8605042,20.3462185 C23.3613445,20.8672269 23.6235294,21.589916 23.6235294,22.4302521 L23.6235294,23.3142857 C23.6235294,23.4789916 23.4890756,23.6168067 23.3243697,23.6168067 L14.5042017,23.6168067 C14.3394958,23.6168067 14.205042,23.4823529 14.205042,23.3142857 L14.205042,22.4302521 C14.205042,21.5865546 14.4672269,20.8672269 14.9613445,20.3462185 C15.502521,19.7815126 16.3092437,19.4823529 17.2907563,19.4823529 L20.5243697,19.4823529 C21.512605,19.4823529 22.3159664,19.7815126 22.8605042,20.3462185 L22.8605042,20.3462185 Z M14.9983193,17.2067227 C14.7831933,17.5596639 14.3226891,17.6705882 13.9663866,17.4554622 L11.7882353,16.1210084 L9.60672269,17.4554622 C9.25378151,17.6705882 8.79327731,17.5596639 8.57815126,17.210084 C8.57815126,17.210084 8.57815126,17.2067227 8.57478992,17.2067227 C8.35966387,16.8537815 8.47058824,16.3932773 8.82352941,16.1747899 L11.0352941,14.8201681 L11.0352941,12.2521008 C11.0352941,11.8386555 11.3714286,11.502521 11.7848739,11.502521 C12.1983193,11.502521 12.5344538,11.8386555 12.5344538,12.2521008 L12.5344538,14.8201681 L14.7462185,16.1747899 C15.102521,16.3932773 15.2134454,16.8537815 14.9983193,17.2067227 L14.9983193,17.2067227 Z" id="Grupo_2Regular"></path>
        </g>
    </g>
</svg>

<svg width="24" height="24" viewBox="0 0 24 24" xmlns="http://www.w3.org/2000/svg"><path d="M10.908 1.738c-.205.198-.25.612-.25.92 0 .253.031.707.25.915.211.205.655.235.9.235.246 0 .693-.03.908-.238.205-.199.249-.605.249-.911 0-.31-.044-.72-.252-.921-.205-.199-.605-.239-.908-.239-.242.004-.682.034-.897.239zm.9 3.573c-.837 0-1.489-.219-1.94-.656-.47-.453-.705-1.122-.705-1.996 0-.87.235-1.546.706-1.997C10.316.222 10.97 0 11.809 0c.836 0 1.492.222 1.946.659.47.454.709 1.13.709 2 0 .87-.239 1.543-.71 1.996-.453.437-1.109.656-1.946.656zM8.945 8.376c-.195.206-.286.478-.32.73h6.377c-.037-.252-.125-.521-.323-.726-.32-.336-.857-.404-1.254-.404h-3.23c-.397 0-.931.068-1.25.4zm-1.543 2.232a.3.3 0 01-.3-.302v-.884c0-.844.263-1.567.76-2.084.541-.568 1.348-.864 2.33-.864h3.23c.985 0 1.788.3 2.333.864.5.517.766 1.24.766 2.084v.884a.303.303 0 01-.3.302H7.403zm-3.597 4.148c-.205.199-.249.612-.249.921 0 .31.044.716.249.915.212.205.656.235.9.235.246 0 .693-.03.908-.239.205-.198.25-.605.25-.91 0-.31-.045-.72-.253-.922-.205-.198-.605-.238-.904-.238-.245 0-.686.03-.901.238zm.9 3.57c-.836 0-1.488-.222-1.939-.655-.47-.45-.705-1.123-.705-1.997 0-.87.235-1.546.705-2 .454-.437 1.106-.659 1.943-.659s1.493.222 1.946.659c.471.457.71 1.13.71 2 0 .87-.239 1.543-.713 1.997-.454.437-1.11.655-1.946.655zM1.52 22.121h6.377c-.037-.252-.125-.521-.323-.73-.323-.336-.86-.403-1.254-.403H3.09c-.393 0-.928.07-1.247.404-.198.205-.286.477-.323.729zm4.804-2.632c.981 0 1.788.3 2.332.864.501.52.763 1.244.763 2.087v.881a.3.3 0 01-.299.303H.303A.303.303 0 010 23.32v-.884c0-.844.262-1.566.756-2.084.541-.565 1.348-.867 2.33-.867l3.237.003zm11.69-4.743c-.205.202-.248.612-.248.921 0 .252.03.706.248.915.212.205.656.235.901.235.246 0 .693-.03.908-.239.205-.198.249-.605.249-.91 0-.31-.044-.72-.253-.922-.205-.198-.605-.238-.904-.238-.248.003-.689.033-.9.238zm-1.045 2.918c-.47-.454-.706-1.123-.706-1.997 0-.874.235-1.546.706-1.996.45-.44 1.106-.663 1.943-.663s1.492.222 1.946.66c.47.453.71 1.129.71 2 0 .87-.24 1.542-.713 1.996-.45.437-1.106.655-1.943.655s-1.49-.222-1.943-.655zm-1.24 4.45h6.376c-.037-.252-.124-.52-.322-.73-.323-.335-.861-.402-1.254-.402h-3.234c-.393 0-.928.07-1.247.403-.198.205-.286.477-.32.73zm7.133-1.768c.5.521.763 1.244.763 2.084v.884a.303.303 0 01-.3.303h-8.82a.3.3 0 01-.299-.303v-.884c0-.843.262-1.563.756-2.084.542-.564 1.348-.864 2.33-.864h3.233c.989 0 1.792.3 2.337.864zm-7.863-3.14a.751.751 0 01-1.032.25l-2.178-1.335-2.181 1.334a.75.75 0 01-1.029-.245s0-.003-.003-.003a.753.753 0 01.249-1.032l2.211-1.355v-2.568a.75.75 0 011.5 0v2.568l2.211 1.355a.75.75 0 01.252 1.032z" fill="#5CB615" fill-rule="nonzero"/></svg>
